svg/toy_brick_minus.svg

<svg xmlns="http://www.w3.org/2000/svg" viewBox="0 0 24 24"><path d="M23 20h-8v-2h8zm-10-1c0-3.31 2.69-6 6-6 .7 0 1.37.13 2 .35V6h-2V5a2 2 0 0 0-2-2h-2c-1.1 0-2 .9-2 2v1h-2V5a2 2 0 0 0-2-2H7c-1.1 0-2 .9-2 2v1H3v14h10.09c-.05-.33-.09-.66-.09-1"/></svg>

<?xml version="1.0" encoding="UTF-8"?><!DOCTYPE svg PUBLIC "-//W3C//DTD SVG 1.1//EN" "http://www.w3.org/Graphics/SVG/1.1/DTD/svg11.dtd"><svg xmlns="http://www.w3.org/2000/svg" xmlns:xlink="http://www.w3.org/1999/xlink" version="1.1" id="mdi-toy-brick-minus" width="24" height="24" viewBox="0 0 24 24"><path d="M23 20H15V18H23V20M13 19C13 15.69 15.69 13 19 13C19.7 13 20.37 13.13 21 13.35V6H19V5C19 3.9 18.11 3 17 3H15C13.9 3 13 3.9 13 5V6H11V5C11 3.9 10.11 3 9 3H7C5.9 3 5 3.9 5 5V6H3V20H13.09C13.04 19.67 13 19.34 13 19Z" /></svg>
